X: 458
T: The Blackthorn Stick
N:"Playfully" "collected by F.O'Neill"
N:Irish title: an maide droi.geann
B:O'Neill's 458
Z:Transcribed by henrik.norbeck@mailbox.swipnet.se
M:6/8
L:1/8
K:Dm
(F/G/) | A>DD DcE | (~ED)D D2 (d/e/) | f>ed edc | AB^c d2 d/d/ |
e>dc {e}dcA | (~GF)E F2 G/G/ | A>DD DcE | (~ED)D D2 ||
(3A/=B/^c/ | d>ed {e}dcA | (~GF)E F2 G/G/ | G>EC CEF | G>AG E2 (3A/=B/^c/ |
d>ed {e}dcA | (~GF)E F2 G/G/ | A>DD DcE | (~ED)D D2 ||
(3A/=B/^c/ | d2 e {g}fed | ed^c d2 (A/=B/) | c>dc {d}cBA | G>EC C2 (3A/=B/^c/ |
d2 e ~fed | ed^c d2 A/=B/ | {d}cBA (~GF)G | (A<F)D D2 ||


